X:10218
T:Manhattan Hornpipe
M:2/4
L:1/16
K:Bb
dc|B2FB DBFB|GBFB DBFB|cBcd edcB|Af=eg f_edc|!
B2FB DBFB|GBFB DBFB|Agfe dcBA|B2d2 B2:|!
|:f2|bfdf gfdf|bfdf gfdf|bagf edcB|ABcd c2a2|!
bfdf gfdf|=efga bg=eg|f=efg f_edc|B2d2 B2:|!
